X: 25272
T: Man Of Aran, The
R: reel
M: 4/4
K: Bminor
|:FBfe dB~B2|~e2ed cA~A2|FBfe dB~B2|cedc dB~B2|
fBeB dB~B2|~e2ed cA~A2|(3Bcd (3cde d2 (3efg|1 ~f2fe dBBA:|2 ~f2fe dBBc||
|:Adfd Adfd|cdec fcec|dAFD FAdA|cedc dBBc|
defd Adfd|cdec fcec|(3Bcd (3cde d2 (3efg|1 ~f2fe dBBc:|2 ~f2fe dBBA||

